source/svgs/bowtie/uE9E4-file-symlink.svg

<svg xmlns="http://www.w3.org/2000/svg" viewBox="0 0 448 448"><path d="M294.625 0h-230.625v160h32v-128h160v128h128v256h-96v32h128v-326.625l-121.375-121.375zm-6.625 128v-89.375l89.375 89.375h-89.375zm-96 128v128h-32v-73.375l-84.688 84.688-22.625-22.625 84.688-84.688h-73.375v-32h128zm64 192h-256v-256h256v256zm-224-32h192v-192h-192v192z"/></svg>

<svg xmlns="http://www.w3.org/2000/svg" viewBox="0 0 448 448"><path d="M294.625 0H64v160h32V32h160v128h128v256h-96v32h128V121.375L294.625 0zM288 128V38.625L377.375 128H288zm-96 128v128h-32v-73.375l-84.688 84.688-22.625-22.625L137.375 288H64v-32h128zm64 192H0V192h256v256zM32 416h192V224H32v192z"/></svg>
